public/images/icon-circular.svg

<?xml version="1.0" encoding="UTF-8" standalone="no"?>
<svg width="30px" height="31px" viewBox="0 0 30 31" version="1.1" xmlns="http://www.w3.org/2000/svg" xmlns:xlink="http://www.w3.org/1999/xlink" xmlns:sketch="http://www.bohemiancoding.com/sketch/ns">
    <!-- Generator: Sketch 3.3.2 (12043) - http://www.bohemiancoding.com/sketch -->
    <title>Untitled 2</title>
    <desc>Created with Sketch.</desc>
    <defs></defs>
    <g id="Page-1" stroke="none" stroke-width="1" fill="none" fill-rule="evenodd" sketch:type="MSPage">
        <path d="M13.6,4.74193548 L13.2266667,4.74193548 C6.50666667,4.74193548 1,10.2612903 1,16.9967742 C1,23.7322581 6.50666667,29.2516129 13.2266667,29.2516129 C19.9466667,29.2516129 25.4533333,23.7322581 25.4533333,16.9967742 L25.4533333,16.4354839" id="Shape" stroke="#444444" stroke-width="1.82" sketch:type="MSShapeGroup"></path>
        <path d="M13.1333333,16.9032258 L29,16.9032258 C29,8.48387097 21.5333333,1 13.1333333,1 L13.1333333,16.9032258 L13.1333333,16.9032258 Z" id="Shape" stroke="#444444" stroke-width="1.82" sketch:type="MSShapeGroup"></path>
    </g>
</svg>

<?xml version="1.0" encoding="UTF-8" standalone="no"?>
<svg xmlns:sketch="http://www.bohemiancoding.com/sketch/ns" xmlns="http://www.w3.org/2000/svg" height="31px" width="30px" version="1.1" xmlns:xlink="http://www.w3.org/1999/xlink" viewBox="0 0 30 31"><!-- Generator: Sketch 3.3.2 (12043) - http://www.bohemiancoding.com/sketch -->
 <title>Untitled 2</title>
 <desc>Created with Sketch.</desc>
 <g id="Page-1" fill-rule="evenodd" sketch:type="MSPage" stroke="#444" stroke-width="1.82" fill="none">
  <path id="Shape" sketch:type="MSShapeGroup" d="m13.6 4.7419h-0.373c-6.7203 0-12.227 5.5191-12.227 12.255 0 6.735 5.5067 12.255 12.227 12.255 6.72 0 12.226-5.52 12.226-12.255v-0.562"/>
  <path id="Shape" sketch:type="MSShapeGroup" d="m13.133 16.903h15.867c0-8.4191-7.467-15.903-15.867-15.903v15.903z"/>
 </g>
</svg>
